pix_plugins/mod/chat/icon.svg

<svg xmlns="http://www.w3.org/2000/svg" viewBox="0 0 16 16" enable-background="new 0 0 16 16"><g><circle fill="#49A0AE" cx="8" cy="7.9" r="7.9"/><path fill="#DFF1ED" d="M14.3 10.9c0 .7-.6 1.3-1.3 1.3h-9.9c-.7 0-1.3-.6-1.3-1.3v-5.8c0-.7.6-1.3 1.3-1.3h9.9c.7 0 1.3.6 1.3 1.3v5.8zM11.3 13.9c-.1.1-.3.1-.4 0l-1.3-1.8c-.1-.1-.1-.3 0-.4h2.9c.1.1.1.3 0 .4l-1.2 1.8z"/><path fill="#B7CAC4" d="M12.4 6c0 .3-.2.5-.5.5h-7.8c-.2 0-.5-.2-.5-.5s.2-.5.5-.5h7.8c.3 0 .5.2.5.5zM12.4 7.9c0 .3-.2.5-.5.5h-7.8c-.3 0-.5-.2-.5-.5s.2-.5.5-.5h7.8c.3 0 .5.2.5.5zM12.4 9.8c0 .3-.2.5-.5.5h-7.8c-.3 0-.5-.2-.5-.5s.2-.5.5-.5h7.8c.3 0 .5.2.5.5z"/></g><g><path fill="#DFF1ED" d="M14.3 11.1c0 .7-.6 1.3-1.3 1.3h-9.9c-.7 0-1.3-.6-1.3-1.3v-6c0-.7.6-1.3 1.3-1.3h9.9c.7 0 1.3.6 1.3 1.3v6zM11.3 14.2c-.1.1-.3.1-.4 0l-1.3-1.8c-.1-.1-.1-.3 0-.4h2.9c.1.1.1.3 0 .4l-1.2 1.8z"/><circle fill="#B7CAC4" cx="5.4" cy="8.3" r=".8"/><circle fill="#B7CAC4" cx="8" cy="8.3" r=".8"/><circle fill="#B7CAC4" cx="10.6" cy="8.3" r=".8"/></g></svg>

<?xml version="1.0" encoding="utf-8"?>
<!-- Generator: Adobe Illustrator 17.1.0, SVG Export Plug-In . SVG Version: 6.00 Build 0)  -->
<!DOCTYPE svg PUBLIC "-//W3C//DTD SVG 1.1//EN" "http://www.w3.org/Graphics/SVG/1.1/DTD/svg11.dtd">
<svg version="1.1" xmlns="http://www.w3.org/2000/svg" xmlns:xlink="http://www.w3.org/1999/xlink" x="0px" y="0px"
	 viewBox="0 0 16 16" enable-background="new 0 0 16 16" xml:space="preserve">
<g id="forum">
	<polygon display="none" fill="#38A70C" points="15,12.1 8,16.1 1.1,12.1 1.1,4 8,0 15,4 	"/>
	<rect x="2.4" y="4.6" display="none" fill="#FFFFFF" width="11.4" height="6.6"/>
	<polyline display="none" fill="#FFFFFF" points="6.9,13 6.9,11.2 9.4,11.2 	"/>
	<rect x="1" y="1" display="none" fill="#38A70C" width="10.9" height="10.9"/>
	<polyline display="none" fill="#38A70C" points="2.5,15.9 2.5,11.9 6.6,11.9 	"/>
	<g display="none">
		<rect x="3.6" y="5.8" display="inline" fill="#B0DD9A" width="9" height="0.8"/>
		<rect x="3.6" y="7.5" display="inline" fill="#B0DD9A" width="9" height="0.8"/>
		<rect x="3.6" y="9.2" display="inline" fill="#B0DD9A" width="9" height="0.8"/>
	</g>
	<g>
		<g>
			<g>
				<circle fill="#49A0AE" cx="8" cy="7.9" r="7.9"/>
			</g>
		</g>
		<g>
			<g>
				<g>
					<path fill="#DFF1ED" d="M14.3,10.9c0,0.7-0.6,1.3-1.3,1.3H3.1c-0.7,0-1.3-0.6-1.3-1.3V5.1c0-0.7,0.6-1.3,1.3-1.3H13
						c0.7,0,1.3,0.6,1.3,1.3V10.9z"/>
				</g>
				<g>
					<path fill="#DFF1ED" d="M11.3,13.9c-0.1,0.1-0.3,0.1-0.4,0l-1.3-1.8c-0.1-0.1-0.1-0.3,0-0.4h2.9c0.1,0.1,0.1,0.3,0,0.4
						L11.3,13.9z"/>
				</g>
			</g>
			<g>
				<g>
					<path fill="#B7CAC4" d="M12.4,6c0,0.3-0.2,0.5-0.5,0.5H4.1C3.9,6.5,3.6,6.3,3.6,6l0,0c0-0.3,0.2-0.5,0.5-0.5h7.8
						C12.2,5.5,12.4,5.7,12.4,6L12.4,6z"/>
				</g>
				<g>
					<path fill="#B7CAC4" d="M12.4,7.9c0,0.3-0.2,0.5-0.5,0.5H4.1c-0.3,0-0.5-0.2-0.5-0.5l0,0c0-0.3,0.2-0.5,0.5-0.5h7.8
						C12.2,7.4,12.4,7.6,12.4,7.9L12.4,7.9z"/>
				</g>
				<g>
					<path fill="#B7CAC4" d="M12.4,9.8c0,0.3-0.2,0.5-0.5,0.5H4.1c-0.3,0-0.5-0.2-0.5-0.5l0,0c0-0.3,0.2-0.5,0.5-0.5h7.8
						C12.2,9.3,12.4,9.5,12.4,9.8L12.4,9.8z"/>
				</g>
			</g>
		</g>
	</g>
</g>
<g id="chat">
	<g>
		<g display="none">
			<g display="inline">
				<circle fill="#49A0AE" cx="7.9" cy="8" r="8"/>
			</g>
		</g>
		<g>
			<g>
				<g>
					<path fill="#DFF1ED" d="M14.3,11.1c0,0.7-0.6,1.3-1.3,1.3H3.1c-0.7,0-1.3-0.6-1.3-1.3v-6c0-0.7,0.6-1.3,1.3-1.3H13
						c0.7,0,1.3,0.6,1.3,1.3V11.1z"/>
				</g>
				<g>
					<path fill="#DFF1ED" d="M11.3,14.2c-0.1,0.1-0.3,0.1-0.4,0l-1.3-1.8c-0.1-0.1-0.1-0.3,0-0.4h2.9c0.1,0.1,0.1,0.3,0,0.4
						L11.3,14.2z"/>
				</g>
			</g>
			<g>
				<g>
					<circle fill="#B7CAC4" cx="5.4" cy="8.3" r="0.8"/>
				</g>
				<g>
					<circle fill="#B7CAC4" cx="8" cy="8.3" r="0.8"/>
				</g>
				<g>
					<circle fill="#B7CAC4" cx="10.6" cy="8.3" r="0.8"/>
				</g>
			</g>
		</g>
	</g>
</g>
</svg>
